X: 23065
T: Late Summer
R: reel
M: 4/4
K: Gmajor
|:DGBG ABAG|EA z G A2 GA|Beed BAGA|FGEF D2 GE|
DG G2 GA (3BAG|EAAG A2 GA|Beed BAGA|1 B2 A2 A2 BG:|2 B2 A2 A2 BA||
|:(3GAB dg fged|eAAG A2 (3B^cd|eaab aged|gAfe dBAF|
(3GAB dg fgag|eA z G A2 GA|Beed BAGA|1 B2 A2 A2 BA:|2 B2 A2 A2 BG||

